X: 5
T: The Road To Errogie
R: reel
M: 4/4
L: 1/8
K: Dmaj
|:Add2 edef|add2 efaf|b3d' afd2|e3f edBd|
Add2 edef|add2 efaf|b3d' afd2|ed c/2B/2A d2 fd:|
Add2 d2ed|ef2e d3A|B2Ad2AB2-|BAdA BAFG|
Add2 d2ed|ef2e d3A|B3d AFDB,|ED C/2B,/2A, D4|
Add2 d2ed|ef2e d3A|B2Ad2AB2-|BAdA BAFD|
A,DD2 EDEF|ADD2 EFAF|B3d AFD2|ED C/2B,/2A, D2 FD||


Tune 5270	Setting 17501

